src/assets/selectIcons/tesoro_3.svg

<svg xmlns="http://www.w3.org/2000/svg" viewBox="0 0 512 512"><path d="M0 0h512v512H0z"/><path fill="#fff" d="M255.406 19.063c-8.072 0-26.468-.038-45 3-18.532 3.037-36.397 9.68-43.844 19.406-3.24 4.23-3.078 16.023.5 21.81.648 1.048 7.32 5.613 13.875 8.095 6.556 2.482 12.47 3.844 12.47 3.844l7 1.593V84c0 4.93-1.786 8.804-3.188 11.625-1.404 2.82-2.523 4.888-3.19 7.094-1.33 4.41-1.94 10.49 5.44 25.25l3.31 6.624-7.5 6.406c-21.85 22.665-40.35 52.514-51.468 82.156-11.538 30.768-14.83 61.13-7.875 82 7.336 22.01 22.506 41.24 36.563 59.313 14.057 18.07 27.906 35.032 27.906 55.53 0 11-6.656 18.375-10.656 22.375-4 4-5.344 4.625-5.344 9.625 0 2 5.67 13.724 18.22 22.688 12.548 8.963 30.78 16.312 52.78 16.312s40.2-7.35 52.75-16.313c12.55-8.963 18.25-20.685 18.25-22.687 0-5-1.375-5.625-5.375-9.625S310.407 431 310.407 420c0-20.5 13.818-37.458 27.875-55.53 14.058-18.074 29.26-37.31 36.595-59.314 6.956-20.87 3.632-51.232-7.906-82-11.54-30.768-30.998-61.84-53.94-84.78l-4.592-4.595 2.906-5.81c7.463-14.928 6.772-19.403 5.53-23.126-1.24-3.724-6.468-9.843-6.468-20.844v-7.188l7-1.593s5.913-1.363 12.47-3.845c6.555-2.482 13.23-7.05 13.874-8.094 3.58-5.792 3.74-17.58.5-21.81-7.448-9.73-25.343-16.37-43.875-19.407-18.532-3.038-36.9-3-44.97-3zM137.75 79.656c-4.783.01-9.487 1.363-14.063 4.344-37.933 24.713-10.808 98.99 1.626 137.406.538-1.525 1.084-3.038 1.656-4.562 3.7-9.87 8.115-19.706 13.155-29.313-11.593-28.954-31.216-71.365-6.906-87.53 11.226-7.468 30.314 6.053 43.56 17.75-1.538-6.72-1.636-12.428-.75-17.188-13.093-12.165-25.986-20.933-38.28-20.906zm234.156 0c-12.115-.027-24.82 8.484-37.72 20.375 1.29 4.42 1.5 9.824.158 16.407 13.16-11.366 31.278-23.63 42.094-16.437 23.97 15.94 5.205 57.397-6.438 86.313 5.31 9.996 9.953 20.24 13.813 30.53.364.973.71 1.935 1.062 2.907 12.65-38.855 38.493-111.385 1.094-135.75-4.576-2.98-9.28-4.333-14.064-4.344z"/></svg>

<?xml version="1.0" encoding="UTF-8" standalone="no"?>
<!DOCTYPE svg PUBLIC "-//W3C//DTD SVG 1.1//EN" "http://www.w3.org/Graphics/SVG/1.1/DTD/svg11.dtd">
<svg width="100%" height="100%" viewBox="0 0 512 512" version="1.1" xmlns="http://www.w3.org/2000/svg" xmlns:xlink="http://www.w3.org/1999/xlink" xml:space="preserve" xmlns:serif="http://www.serif.com/" style="fill-rule:evenodd;clip-rule:evenodd;stroke-linejoin:round;stroke-miterlimit:2;">
    <rect x="0" y="0" width="512" height="512" style="fill-rule:nonzero;"/>
    <path d="M255.406,19.063C247.334,19.063 228.938,19.025 210.406,22.063C191.874,25.1 174.009,31.743 166.562,41.469C163.322,45.699 163.484,57.492 167.062,63.279C167.71,64.327 174.382,68.892 180.937,71.374C187.493,73.856 193.407,75.218 193.407,75.218L200.407,76.811L200.407,84C200.407,88.93 198.621,92.804 197.219,95.625C195.815,98.445 194.696,100.513 194.029,102.719C192.699,107.129 192.089,113.209 199.469,127.969L202.779,134.593L195.279,140.999C173.429,163.664 154.929,193.513 143.811,223.155C132.273,253.923 128.981,284.285 135.936,305.155C143.272,327.165 158.442,346.395 172.499,364.468C186.556,382.538 200.405,399.5 200.405,419.998C200.405,430.998 193.749,438.373 189.749,442.373C185.749,446.373 184.405,446.998 184.405,451.998C184.405,453.998 190.075,465.722 202.625,474.686C215.173,483.649 233.405,490.998 255.405,490.998C277.405,490.998 295.605,483.648 308.155,474.685C320.705,465.722 326.405,454 326.405,451.998C326.405,446.998 325.03,446.373 321.03,442.373C317.03,438.373 310.407,431 310.407,420C310.407,399.5 324.225,382.542 338.282,364.47C352.34,346.396 367.542,327.16 374.877,305.156C381.833,284.286 378.509,253.924 366.971,223.156C355.431,192.388 335.973,161.316 313.031,138.376L308.439,133.781L311.345,127.971C318.808,113.043 318.117,108.568 316.875,104.845C315.635,101.121 310.407,95.002 310.407,84.001L310.407,76.813L317.407,75.22C317.407,75.22 323.32,73.857 329.877,71.375C336.432,68.893 343.107,64.325 343.751,63.281C347.331,57.489 347.491,45.701 344.251,41.471C336.803,31.741 318.908,25.101 300.376,22.064C281.844,19.026 263.476,19.064 255.406,19.064L255.406,19.063ZM137.75,79.656C132.967,79.666 128.263,81.019 123.687,84C85.754,108.713 112.879,182.99 125.313,221.406C125.851,219.881 126.397,218.368 126.969,216.844C130.669,206.974 135.084,197.138 140.124,187.531C128.531,158.577 108.908,116.166 133.218,100.001C144.444,92.533 163.532,106.054 176.778,117.751C175.24,111.031 175.142,105.323 176.028,100.563C162.935,88.398 150.042,79.63 137.748,79.657L137.75,79.656ZM371.906,79.656C359.791,79.629 347.086,88.14 334.186,100.031C335.476,104.451 335.686,109.855 334.344,116.438C347.504,105.072 365.622,92.808 376.438,100.001C400.408,115.941 381.643,157.398 370,186.314C375.31,196.31 379.953,206.554 383.813,216.844C384.177,217.817 384.523,218.779 384.875,219.751C397.525,180.896 423.368,108.366 385.969,84.001C381.393,81.021 376.689,79.668 371.905,79.657L371.906,79.656Z" style="fill:rgb(201,111,83);fill-rule:nonzero;"/>
</svg>
